X:177
T:Gamblä Mörti.
S:Efter Lena Olsson, Salands i Linde.
M:3/4
L:1/8
K:F
c f e2 f2|c f e2 f2|c f e e d c|
w:Gamb-lä Mör-ti, gamb-lä Mör-ti rän-nar äut pa Lind-bou-
d2 c2 z2:|B A G A F2|B A G A F2|
w:klin-ti. Ja-kå Kau-pa-rä, Ja-kå Kau-pa-rä
c f e2 d c|d2 c2 z2:|
w:rän-nar ät-tar, far in-tä.
